X: 13232
T: Fisherman's Favourite
R: reel
M: 4/4
K: Gmajor
|:GBdB cedc|BdGA BGBd|~c3B AGFG|AGFE D2cA|
GBdB cedc|BdGA BGBd|~c3B AFEF|GBAF G4:|
|:Addd Addd|cdBd Addd|cdBd AGFG|AGFE D2cA|
GBdB cedc|BdGA BGBd|~c3B AFEF|GBAF G4:|

